X: 22858
T: Lark In The Morning, The
R: jig
M: 6/8
K: Eminor
|:G/A/|[GB]EE EGA|B^AB B/c/dB|AFD DFG|A^GA A2 B/c/|
B[EG]E E2 A|B^AB B2 e|dB[GB] B^AB|GE^D E2:|
|:e|eBe e/f/ge|fdd d2 ^c|dAd d/e/fd|BA^G A2 e|
eBe efg|agf g2 e|dB[GB] A^GA|GE^D E2:|

